icon-lottery.svg

<svg fill="none" height="58" width="59" xmlns="http://www.w3.org/2000/svg" xmlns:xlink="http://www.w3.org/1999/xlink"><filter id="a" color-interpolation-filters="sRGB" filterUnits="userSpaceOnUse" height="56.75" width="57.499" x=".95" y=".7"><feFlood flood-opacity="0" result="BackgroundImageFix"/><feColorMatrix in="SourceAlpha" values="0 0 0 0 0 0 0 0 0 0 0 0 0 0 0 0 0 0 127 0"/><feOffset dx="-.3" dy="-.3"/><feGaussianBlur stdDeviation="1.5"/><feColorMatrix values="0 0 0 0 1 0 0 0 0 1 0 0 0 0 1 0 0 0 0.7 0"/><feBlend in2="BackgroundImageFix" result="effect1_dropShadow"/><feBlend in="SourceGraphic" in2="effect1_dropShadow" result="shape"/></filter><g filter="url(#a)"><path clip-rule="evenodd" d="m31.898 43.994c9.89-.944 17.602-9.193 17.602-19.202 0-10.64-8.716-19.292-19.5-19.292s-19.5 8.651-19.5 19.292c0 9.682 7.216 17.716 16.639 19.086l-.463 1.447c-10.018-1.577-17.676-10.17-17.676-20.533 0-11.482 9.402-20.792 21-20.792s21 9.309 21 20.792c0 10.691-8.15 19.498-18.635 20.662z" fill="#fff" fill-rule="evenodd"/><g stroke="#fff" stroke-width="1.5"><path d="m34.25 24.792c0 2.313-1.896 4.2-4.25 4.2s-4.25-1.887-4.25-4.2 1.896-4.2 4.25-4.2 4.25 1.887 4.25 4.2zm-4.5-14.852v10.891m0 7.921v6.931"/><path d="m0-.75h10.965" transform="matrix(-.82606 .56359 -.57124 -.82078 42.68 15.376)"/><path d="m0-.75h10.965" transform="matrix(-.82606 .56359 -.57124 -.82078 26.059 26.773)"/><path d="m0-.75h10.982" transform="matrix(.91473 .40406 .41083 -.91171 16 17.861)"/><path d="m0-.75h10.982" transform="matrix(.91473 .40406 .41083 -.91171 34 25.782)"/><path clip-rule="evenodd" d="m27 33.223a1.5 1.5 0 1 1 -3 0 1.5 1.5 0 0 1 3 0zm15-8.911a1.5 1.5 0 1 1 -3 0 1.5 1.5 0 0 1 3 0zm-6-7.921a1.5 1.5 0 1 1 -3 0 1.5 1.5 0 0 1 3 0zm-14 8.911a1.5 1.5 0 1 1 -3 0 1.5 1.5 0 0 1 3 0zm4-8.911a1.5 1.5 0 1 1 -3 0 1.5 1.5 0 0 1 3 0zm11 16.832a1.5 1.5 0 1 1 -3 0 1.5 1.5 0 0 1 3 0z"/><path d="m17.19 40.634-12.05 11.529c-.459.857.265 1.837 1.355 1.837h13.185" stroke-linecap="round"/><path d="m42.583 40.634 12.417 13.366h-27.43" stroke-linecap="round" stroke-linejoin="round"/><path d="m22 47.545h15m-11.498-.545 4-12m3.498 12-3-12" stroke-linecap="round"/><circle cx="30" cy="25" r="15.25"/></g></g></svg>

<svg width="59" height="58" fill="none" xmlns="http://www.w3.org/2000/svg"><g filter="url(#filter0_d)"><path fill-rule="evenodd" clip-rule="evenodd" d="M31.898 43.994c9.89-.944 17.602-9.193 17.602-19.202C49.5 14.152 40.784 5.5 30 5.5s-19.5 8.651-19.5 19.292c0 9.682 7.216 17.716 16.639 19.086l-.463 1.447C16.658 43.748 9 35.155 9 24.792 9 13.31 18.402 4 30 4s21 9.309 21 20.792c0 10.691-8.15 19.498-18.635 20.662l-.467-1.46z" fill="#fff"/><path d="M34.25 24.792c0 2.313-1.896 4.2-4.25 4.2s-4.25-1.887-4.25-4.2 1.896-4.2 4.25-4.2 4.25 1.887 4.25 4.2zM29.75 9.94v10.891m0 7.921v6.931" stroke="#fff" stroke-width="1.5"/><path transform="matrix(-.82606 .56359 -.57124 -.82078 42.68 15.376)" stroke="#fff" stroke-width="1.5" d="M0-.75h10.965"/><path transform="matrix(-.82606 .56359 -.57124 -.82078 26.059 26.773)" stroke="#fff" stroke-width="1.5" d="M0-.75h10.965"/><path transform="matrix(.91473 .40406 .41083 -.91171 16 17.861)" stroke="#fff" stroke-width="1.5" d="M0-.75h10.982"/><path transform="matrix(.91473 .40406 .41083 -.91171 34 25.782)" stroke="#fff" stroke-width="1.5" d="M0-.75h10.982"/><path clip-rule="evenodd" d="M27 33.223a1.5 1.5 0 11-3 0 1.5 1.5 0 013 0zm15-8.911a1.5 1.5 0 11-3 0 1.5 1.5 0 013 0zm-6-7.921a1.5 1.5 0 11-3 0 1.5 1.5 0 013 0zm-14 8.911a1.5 1.5 0 11-3 0 1.5 1.5 0 013 0zm4-8.911a1.5 1.5 0 11-3 0 1.5 1.5 0 013 0zm11 16.832a1.5 1.5 0 11-3 0 1.5 1.5 0 013 0z" stroke="#fff" stroke-width="1.5"/><path d="M17.19 40.634L5.14 52.163C4.681 53.02 5.405 54 6.495 54H19.68" stroke="#fff" stroke-width="1.5" stroke-linecap="round"/><path d="M42.583 40.634L55 54H27.57" stroke="#fff" stroke-width="1.5" stroke-linecap="round" stroke-linejoin="round"/><path d="M22 47.545h15M25.502 47l4-12M33 47l-3-12" stroke="#fff" stroke-width="1.5" stroke-linecap="round"/><circle cx="30" cy="25" r="15.25" stroke="#fff" stroke-width="1.5"/></g><defs><filter id="filter0_d" x=".95" y=".7" width="57.499" height="56.75" filterUnits="userSpaceOnUse" color-interpolation-filters="sRGB"><feFlood flood-opacity="0" result="BackgroundImageFix"/><feColorMatrix in="SourceAlpha" values="0 0 0 0 0 0 0 0 0 0 0 0 0 0 0 0 0 0 127 0"/><feOffset dx="-.3" dy="-.3"/><feGaussianBlur stdDeviation="1.5"/><feColorMatrix values="0 0 0 0 1 0 0 0 0 1 0 0 0 0 1 0 0 0 0.7 0"/><feBlend in2="BackgroundImageFix" result="effect1_dropShadow"/><feBlend in="SourceGraphic" in2="effect1_dropShadow" result="shape"/></filter></defs></svg>
